media/img/firefox/mobile/icon-sync.svg

<?xml version="1.0" encoding="UTF-8"?>
<svg width="29px" height="29px" viewBox="0 0 29 29" version="1.1" xmlns="http://www.w3.org/2000/svg" xmlns:xlink="http://www.w3.org/1999/xlink">
    <!-- Generator: Sketch 47.1 (45422) - http://www.bohemiancoding.com/sketch -->
    <title>Shape</title>
    <desc>Created with Sketch.</desc>
    <defs>
        <linearGradient x1="100%" y1="0%" x2="0%" y2="100%" id="linearGradient-1">
            <stop stop-color="#05C8E5" offset="0%"></stop>
            <stop stop-color="#008BFF" offset="100%"></stop>
        </linearGradient>
    </defs>
    <g id="Mobile-Wireframes" stroke="none" stroke-width="1" fill="none" fill-rule="evenodd">
        <g id="FF-57-Mobile-Landing" transform="translate(-1046.000000, -1989.000000)" fill-rule="nonzero" fill="url(#linearGradient-1)">
            <g id="App-Features" transform="translate(-1.000000, 1588.000000)">
                <path d="M1073.07975,401.190692 C1071.97519,401.190692 1071.07975,402.088779 1071.07975,403.196626 L1071.07975,405.495427 C1067.57005,401.814323 1062.33778,400.346571 1057.43325,401.667324 C1052.52872,402.988076 1048.73311,406.886969 1047.53375,411.836186 C1047.34187,412.538001 1047.544,413.289004 1048.06196,413.798626 C1048.57991,414.308248 1049.33243,414.496547 1050.02836,414.290669 C1050.72429,414.084791 1051.25446,413.51703 1051.41375,412.807059 C1052.50979,408.345058 1056.49793,405.207476 1061.07975,405.202561 C1064.2102,405.197644 1067.15611,406.687261 1069.01375,409.21443 L1065.07975,409.21443 C1063.97519,409.21443 1063.07975,410.112517 1063.07975,411.220365 C1063.07975,412.328212 1063.97519,413.226299 1065.07975,413.226299 L1073.07975,413.226299 C1074.18432,413.226299 1075.07975,412.328212 1075.07975,411.220365 L1075.07975,403.196626 C1075.07975,402.088779 1074.18432,401.190692 1073.07975,401.190692 Z M1073.17175,416.197088 C1072.65696,416.067888 1072.11207,416.149184 1071.65706,416.423075 C1071.20205,416.696967 1070.87422,417.140999 1070.74575,417.657408 C1069.64972,422.119409 1065.66158,425.256991 1061.07975,425.261906 C1057.94931,425.266823 1055.0034,423.777206 1053.14575,421.250037 L1057.07975,421.250037 C1058.18432,421.250037 1059.07975,420.35195 1059.07975,419.244103 C1059.07975,418.136256 1058.18432,417.238168 1057.07975,417.238168 L1049.07975,417.238168 C1047.97519,417.238168 1047.07975,418.136256 1047.07975,419.244103 L1047.07975,427.267841 C1047.07975,428.375688 1047.97519,429.273775 1049.07975,429.273775 C1050.18432,429.273775 1051.07975,428.375688 1051.07975,427.267841 L1051.07975,424.96904 C1054.58946,428.650144 1059.82173,430.117896 1064.72626,428.797144 C1069.63079,427.476391 1073.4264,423.577498 1074.62575,418.628281 C1074.89287,417.554334 1074.24219,416.466349 1073.17175,416.197088 Z" id="Shape"></path>
            </g>
        </g>
    </g>
</svg>

<svg width="29" height="29" viewBox="0 0 29 29" xmlns="http://www.w3.org/2000/svg">
  <title>
    Shape
  </title>
  <defs>
    <linearGradient x1="100%" y1="0%" x2="0%" y2="100%" id="a">
      <stop stop-color="#05C8E5" offset="0%"/>
      <stop stop-color="#008BFF" offset="100%"/>
    </linearGradient>
  </defs>
  <path d="M1073.08 401.19c-1.105 0-2 .9-2 2.007v2.298c-3.51-3.68-8.742-5.148-13.647-3.828-4.904 1.32-8.7 5.22-9.9 10.17-.19.7.01 1.452.53 1.962.517.506 1.27.695 1.965.49.696-.207 1.226-.775 1.386-1.485 1.096-4.462 5.084-7.6 9.666-7.604 3.13-.004 6.076 1.485 7.934 4.01h-3.934c-1.105 0-2 .9-2 2.008 0 1.107.895 2.005 2 2.005h8c1.104 0 2-.898 2-2.006v-8.024c0-1.108-.896-2.006-2-2.006zm.092 15.007c-.515-.13-1.06-.048-1.515.226-.455.274-.783.718-.91 1.234-1.097 4.462-5.085 7.6-9.667 7.605-3.13.005-6.077-1.485-7.934-4.012h3.934c1.104 0 2-.898 2-2.006 0-1.108-.896-2.006-2-2.006h-8c-1.105 0-2 .898-2 2.006v8.024c0 1.108.895 2.006 2 2.006 1.104 0 2-.898 2-2.006v-2.3c3.51 3.682 8.742 5.15 13.646 3.83 4.905-1.322 8.7-5.22 9.9-10.17.267-1.074-.384-2.162-1.454-2.43z" transform="translate(-1047 -401)" fill="url(#a)"/>
</svg>
